public_html/images/ico/youtube.svg

<svg xmlns="http://www.w3.org/2000/svg" width="461" height="327" viewBox="0 0 461 327"><path fill="#D9292A" fill-rule="evenodd" d="M300.506 170.447l-126.06 60.123c-3.359 1.602-7.239-.847-7.239-4.568V101.998c0-3.774 3.982-6.22 7.348-4.514l126.06 63.881c3.748 1.899 3.683 7.274-.109 9.082zM365.257.784H95.744C42.866.784 0 43.65 0 96.528v134.728C0 284.134 42.866 327 95.744 327h269.513c52.878 0 95.744-42.866 95.744-95.744V96.528c0-52.878-42.866-95.744-95.744-95.744z"/></svg>

<svg xmlns="http://www.w3.org/2000/svg" width="461" height="327" viewBox="0 0 461 327">
  <path fill="#D9292A" fill-rule="evenodd" d="M300.506,170.447 L174.446,230.57 C171.087,232.172 167.207,229.723 167.207,226.002 L167.207,101.998 C167.207,98.224 171.189,95.778 174.555,97.484 L300.615,161.365 C304.363,163.264 304.298,168.639 300.506,170.447 Z M365.257,0.784 L95.744,0.784 C42.866,0.784 0,43.65 0,96.528 L0,231.256 C0,284.134 42.866,327 95.744,327 L365.257,327 C418.135,327 461.001,284.134 461.001,231.256 L461.001,96.528 C461.001,43.65 418.135,0.784 365.257,0.784 L365.257,0.784 Z"/>
</svg>
